src/lib/packages/icons/src/assets/line/badge.svg

<svg width="24" height="24" viewBox="0 0 24 24" fill="none" xmlns="http://www.w3.org/2000/svg">
<path d="M11.9999 21.748C11.0399 21.748 10.0799 21.383 9.34992 20.652L8.909 20.211C8.769 20.071 8.57597 19.991 8.37897 19.991H7.758C5.692 19.991 4.00995 18.31 4.00995 16.243V15.622C4.00995 15.425 3.92998 15.231 3.78998 15.092L3.34894 14.651C1.88694 13.19 1.88694 10.812 3.34894 9.34999L3.78998 8.90898C3.92998 8.76898 4.00995 8.57598 4.00995 8.37798V7.75697C4.00995 5.68997 5.692 4.00899 7.758 4.00899H8.37897C8.57597 4.00899 8.77 3.92899 8.909 3.78899L9.34992 3.34798C10.8109 1.88698 13.1899 1.88698 14.6509 3.34798L15.092 3.78899C15.232 3.92899 15.4249 4.00899 15.6219 4.00899H16.243C18.309 4.00899 19.9909 5.68997 19.9909 7.75697V8.37798C19.9909 8.57598 20.071 8.76898 20.211 8.90898L20.6519 9.34999C22.1139 10.811 22.1139 13.189 20.6519 14.651L20.211 15.092C20.071 15.232 19.9909 15.425 19.9909 15.622V16.243C19.9909 18.31 18.309 19.991 16.243 19.991H15.6219C15.4249 19.991 15.231 20.071 15.092 20.21L14.6509 20.652C13.9199 21.383 12.9599 21.748 11.9999 21.748ZM7.7569 5.50899C6.5179 5.50899 5.50898 6.51797 5.50898 7.75697V8.37798C5.50898 8.97898 5.27492 9.54398 4.84992 9.96898L4.409 10.41C3.984 10.835 3.75092 11.399 3.75092 12C3.75092 12.601 3.984 13.165 4.409 13.59L4.84992 14.031C5.27492 14.456 5.50898 15.021 5.50898 15.622V16.243C5.50898 17.483 6.5179 18.491 7.7569 18.491H8.37799C8.97099 18.491 9.55094 18.731 9.96894 19.15L10.41 19.591C11.26 20.44 12.7399 20.44 13.5899 19.591L14.0309 19.15C14.4489 18.731 15.0289 18.491 15.6219 18.491H16.243C17.482 18.491 18.4909 17.482 18.4909 16.243V15.622C18.4909 15.021 18.725 14.456 19.15 14.031L19.5909 13.59C20.0159 13.165 20.249 12.601 20.249 12C20.249 11.399 20.0159 10.835 19.5909 10.41L19.15 9.96898C18.725 9.54398 18.4909 8.97898 18.4909 8.37798V7.75697C18.4909 6.51697 17.482 5.50899 16.243 5.50899H15.6219C15.0299 5.50899 14.4499 5.26899 14.0309 4.84999L13.5899 4.40898C12.7399 3.55998 11.26 3.55998 10.41 4.40898L9.96894 4.84999C9.54994 5.26899 8.96999 5.50899 8.37799 5.50899H7.7569Z" fill="currentColor"/>
</svg>

<svg xmlns="http://www.w3.org/2000/svg" width="24" height="24" fill="none"><path fill="currentColor" d="M12 21.748c-.96 0-1.92-.365-2.65-1.096l-.441-.441a.755.755 0 0 0-.53-.22h-.621a3.752 3.752 0 0 1-3.748-3.748v-.621a.753.753 0 0 0-.22-.53l-.441-.441a3.752 3.752 0 0 1 0-5.301l.441-.441c.14-.14.22-.333.22-.531v-.621a3.752 3.752 0 0 1 3.748-3.748h.621c.197 0 .391-.08.53-.22l.44-.441a3.753 3.753 0 0 1 5.302 0l.441.441c.14.14.333.22.53.22h.621a3.752 3.752 0 0 1 3.748 3.748v.621c0 .198.08.391.22.531l.44.441a3.752 3.752 0 0 1 0 5.301l-.44.441a.755.755 0 0 0-.22.53v.621a3.752 3.752 0 0 1-3.748 3.748h-.621a.756.756 0 0 0-.53.219l-.441.442A3.737 3.737 0 0 1 12 21.748ZM7.757 5.509a2.251 2.251 0 0 0-2.248 2.248v.621c0 .601-.234 1.166-.66 1.591l-.44.441A2.232 2.232 0 0 0 3.751 12c0 .601.233 1.165.658 1.59l.44.441c.426.425.66.99.66 1.591v.621a2.25 2.25 0 0 0 2.248 2.248h.621c.593 0 1.173.24 1.59.659l.442.441c.85.849 2.33.849 3.18 0l.44-.441a2.262 2.262 0 0 1 1.592-.659h.621a2.251 2.251 0 0 0 2.248-2.248v-.621c0-.601.234-1.166.659-1.591l.44-.441c.426-.425.659-.989.659-1.59 0-.601-.233-1.165-.658-1.59l-.441-.441a2.235 2.235 0 0 1-.66-1.591v-.621a2.25 2.25 0 0 0-2.247-2.248h-.621c-.592 0-1.172-.24-1.591-.659l-.441-.441c-.85-.849-2.33-.849-3.18 0l-.441.441a2.266 2.266 0 0 1-1.591.659h-.621Z"/></svg>
